Sources/FrostedUI/Resources/Icons.xcassets/checkmarkShield12.imageset/checkmark-shield-12.svg

<svg
  width="12"
  height="12"
  viewBox="0 0 12 12"
  fill="none"
  xmlns="http://www.w3.org/2000/svg"
  data-fui-icon="true"
>
  <path
    d="M5.43284 1.06024C4.60052 2.22887 3.16325 2.86496 2.35223 3.147C2.00356 3.26826 1.75 3.59025 1.75 3.95941V4.52632C1.75 7.35369 3.12658 10.3233 5.81161 11.2091C5.89199 11.2356 5.95594 11.25 5.99996 11.25C6.04398 11.25 6.10794 11.2356 6.18831 11.2091C8.87337 10.3233 10.25 7.35371 10.25 4.52632V3.95942C10.25 3.59026 9.99644 3.26826 9.64776 3.147C8.83672 2.86496 7.39941 2.22887 6.56709 1.06024C6.43493 0.874671 6.22779 0.75 5.99996 0.75C5.77214 0.75 5.565 0.874672 5.43284 1.06024Z"
    stroke="currentColor"
    stroke-width="1.5"
    stroke-linecap="round"
    stroke-linejoin="round"
  />
  <path
    d="M4.51562 6.51562L5.53906 7.5L7.51385 5.50161"
    stroke="currentColor"
    stroke-linecap="round"
    stroke-linejoin="round"
  />
</svg>

<svg xmlns="http://www.w3.org/2000/svg" width="12" height="12" fill="none" data-fui-icon="true" viewBox="0 0 12 12"><path stroke="currentColor" stroke-linecap="round" stroke-linejoin="round" stroke-width="1.5" d="M5.433 1.06C4.6 2.23 3.163 2.865 2.353 3.147c-.35.121-.603.443-.603.812v.567c0 2.828 1.377 5.797 4.062 6.683q.121.04.188.041a.7.7 0 0 0 .188-.04c2.685-.887 4.062-3.856 4.062-6.684V3.96c0-.369-.254-.69-.602-.812-.811-.282-2.249-.918-3.08-2.087A.7.7 0 0 0 6 .75a.7.7 0 0 0-.567.31"/><path stroke="currentColor" stroke-linecap="round" stroke-linejoin="round" d="m4.516 6.516 1.023.984 1.975-1.998"/></svg>
